X:1
T:Le content est riche
T:Le content est riche
T:Claudin de Sermisy
C:Claudin de Sermisy
%%score [ 1 [ 2 3 ] 4 ]
L:1/8
Q:1/4=120
M:2/2
K:F
V:1 treble nm="Superius" snm="S"
V:2 treble-8 nm="Tenor 1" snm="T 1"
V:3 treble-8 nm="Tenor 2" snm="T 2"
V:4 bass nm="Bass" snm="B"
V:1
 z4 d4 | d2 d2 A2 A2 | c2 c2 BAGF | G4 A2 AG | AB c3 B A2- | A2 G2 A4 | z2 A2 B2 c2 | %7
w: Le|con- tent est ri-|ch'en ce mon- * * *|* de, en _|ce _ mon- * *|* * de,|et ien heu-|
w: A|coeur joy- eux li-|ber- té mon- * * *|* de, mon- *||* * de,|vi- vre tous-|
 d2 c2 A2 B2- | B2 A2 G2 A2- | AG G4 ^F2 |1 G8 :|2 G8 || z8 | z2 d2 c2 B2 |"^#" B2 d2 d2 c2 | %15
w: reux e ce temps|_ cy, en ce|_ _ temps- *|cy,|||es- tr'a- mou-|reux, non pas tran-|
w: jours hors de sou-|* cy, hors de-|* * * sou-||cy||||
 d2 B2 B2 B2 | A8 | d3 c d2 c2- | cB B4 A2 | B8 | d4 d2 d2 |: A2 A2 c4 | BAGF G4 | A2 AG AB c2- | %24
w: si, à tous deux|clo-|re _ _ les|_ _ _ _|yeux,|tous- jours- gail-|lards, fai- tes|ain- * * * *|si, ain- * * * *|
w: |||||||||
 cB A4 G2 | A4 z2 A2 | B2 c2 d2 c2 | A2 B4 A2 | G2 A3 G G2- |"^#" G2 F2 G4 |1 d4 d2 d2 :|2 %31
w: |si,- et|vous vi- vrez cent|ans de- *|mieux, cent _ ans|_ de mieux,|tous- jours gail-|
w: |||||||
"^#" G2 F2 G4- || G8 |] %33
w: * de mieux|_|
w: ||
V:2
 g4 g2 g2 | d2 d2 f2 f2 | e4 d2 B2- | Bcde f4- | f2 f2 e2 f2 | d4 z2 d2 | e2 f2 g2 e2 | d2 g4 f2 | %8
w: Le con- tent|est ri- ch'en ce|mon- de, en|_ _ _ _ _|* ce mon- *|de, et|bien heu- reux en|ce temps _|
w: A coeur joy-|eux li- ber- té|mon- de, li-||* ber- té mon-|de, vi-|vre tous- jours hors|de sou- *|
 g2 f2 d2 _e2- | ed c2 d4- |1 d4 z4 :|2 d4 z4 || z2 g2 f2 e2 | defg a2 d2 | defg a2 a2 | %15
w: cy, en ce temps||cy,||es- tr'a- mou-|reux, _ _ _ _ non|pa _ _ _ _ tran-|
w: cy, hors de sou-|* * * cy,|_|||||
 f2 g2 g2 g2 | f4 z2 F2- | F2 B4 c2 |"^b" d2 e2 f2 f2 | d4 z2 g2 | g2 g2 d2 d2 |: f4 e4 | %22
w: si, et à tous|deux clo-|* re les|yeux, clo- re les|yeux, tous-|jours gail- lards, fai-|tes ain-|
w: |||||||
 d2 B3 cde | f6 f2 | e2 f2 d4 | z2 d2 e2 f2 | g2 e2 d2 g2- | g2 f2 g2 f2 | d2 e3 d c2 | d4 z2 d2 |1 %30
w: si, fai- * * *|* tes|ain- * si,|et vous vi-|vrez cent ans de|_ _ mieux, cent|ans de _ _|mieux, tous-|
w: ||||||||
 g2 g2 d2 d2 :|2 d8- || d8 |] %33
w: jours gail- lards, fai-|mieux.|_|
w: |||
V:3
 z8 | z8 | z8 | d4 d2 d2 | A2 A2 c2 c2 | B4 A4- | A4 z2 A2 | B2 c2 d4 | c4 B2 c2- | cB G2 A4 |1 %10
w: |||Le con- tent|est ri- ch'en ce|mon- de,|_ et|bien heu- reux|en- ce temps|_ _ _ _|
w: |||A coeur joy-|eux li- ber- té|mon- de,|_ vi-|vre tous- jours|hors de _|_ _ _ _|
 G8- :|2 G2 d2 c2 B2 || A2 d2 d2 c2 | d3 e f2 g2 | fe d2 e2 e2 | d4 z2 d2 | d2 d2 c2 c2 | %17
w: cy,|cy, es- tr'a- mou-|reux, non pas tran-|si, _ _ non|pas _ _ _ tran-|si, et|à tous deux clo-|
w: |||||||
"^b" f3 e d2 _e2 | ed B2 c4 | B2 d2 d2 d2 | G2 G2 B3 c |: d2 d2 A4 | z4 d4 | d2 d2 A2 A2 | c4 B4 | %25
w: re _ _ les|_ _ _ _|yeux, tous- jours gail-|lards, fai- tes _|_ ain- si,|tous-|jours gail- lards, fai-|tes- ain-|
w: ||||||||
 A8 | z2 A2 B2 c2 | d4 c4 | B2 c3 BAG | A4 G2 d2 |1 G2 G2 B3 c :|2 A4 G4- || G8 |] %33
w: si,|et vous vi-|vrez cent|ans de _ _ _|_ miex, tous-|jours gail- lards, fai-|* mieux.|_|
w: ||||||||
V:4
 z8 | z8 | z4 G,4 | G,2 G,2 D,2 D,2 | F,3 G, A,2 F,2 | G,4 D,4 | z8 | z4 z2 D,2 | E,2 F,2 G,2 C,2 | %9
w: ||Le|con- tent est ri-|ch'en _ _ ce|mon- de,||et|bien heu- reux en|
w: ||A|coeu joy- eux li-|ber- * * té|mon- de,||vi-|vre tous- jours hors|
 _E,4 D,4 |1 G,8 :|2 G,4 z2 D2 || C2 B,2 A,4 | B,4 A,2 G,2 | D2 B,2 A,2 A,2 | D,2 G,2 G,2 G,2 | %16
w: ce temps|cy,|* es-|tr'a- mou- reux,|non pas tran-|si, non pas tran-|si, et à tous|
w: de sou-||cy, *|||||
 D,2 D,2 F,3 E, |"^b" D,C, B,,2 B,2 A,2 | G,2 G,2 F,4 | B,,8 | z8 |: z8 | z2 G,2 G,2 G,2 | %23
w: deux clo- re _|_ _ _ les yeux,|clo- re les|yeux,|||tous- lours gail-|
w: |||||||
 D,2 D,2 F,3 G, | A,2 G,F, G,2 G,2 | D,4 z4 | z8 | z2 D,2 E,2 F,2 | G,2 C,2 _E,4 | D,4 G,4 |1 %30
w: lards fai- tes _|_ _ _ _ ain-|si,||et vous vi-|vrez cent ans|de mieux,|
w: |||||||
 z8 :|2 D,4 G,4- || G,8 |] %33
w: |de mieux.|_|
w: |||

